cellphone-message.svg

<svg fill="currentColor" viewBox="0 0 24 24"><path d="M11 17V7H4v10zm0-14a2 2 0 0 1 2 2v14a2 2 0 0 1-2 2H4a2 2 0 0 1-2-2V5a2 2 0 0 1 2-2zm5.5 0h5A1.5 1.5 0 0 1 23 4.5v3A1.5 1.5 0 0 1 21.5 9H18l-3 3V4.5A1.5 1.5 0 0 1 16.5 3"/></svg>

<svg  viewBox="0 0 24 24" fill="currentColor"><path  d="M11,17V7H4V17H11M11,3A2,2 0 0,1 13,5V19A2,2 0 0,1 11,21H4C2.89,21 2,20.1 2,19V5A2,2 0 0,1 4,3H11M16.5,3H21.5A1.5,1.5 0 0,1 23,4.5V7.5A1.5,1.5 0 0,1 21.5,9H18L15,12V9L15,4.5A1.5,1.5 0 0,1 16.5,3Z"/></svg>
